packages/ffe-icons/icons/filled/md/perm_contact_calendar.svg

<svg xmlns="http://www.w3.org/2000/svg" height="24" viewBox="0 -960 960 960" width="24"><path d="M200-200.615q54-53 125.5-83.5t154.5-30.5q83 0 154.5 30.5t125.5 83.5v-507.076q0-4.616-3.846-8.463-3.847-3.846-8.463-3.846H212.309q-4.616 0-8.463 3.846-3.846 3.847-3.846 8.463v507.076Zm280-209.386q-54.154 0-92.076-37.923-37.923-37.922-37.923-92.076 0-54.154 37.923-92.076 37.922-37.923 92.076-37.923 54.154 0 92.076 37.923 37.923 37.922 37.923 92.076 0 54.154-37.923 92.076-37.922 37.923-92.076 37.923Zm-267.691 310q-30.308 0-51.308-21t-21-51.308v-535.382q0-30.308 21-51.308t51.308-21h55.385v-53.847q0-13.153 8.808-21.961 8.807-8.807 21.961-8.807 13.153 0 21.961 8.807 8.807 8.808 8.807 21.961v53.847h303.076v-54.616q0-12.769 8.615-21.384t21.384-8.615q12.769 0 21.384 8.615 8.616 8.615 8.616 21.384v54.616h55.385q30.308 0 51.308 21t21 51.308v535.382q0 30.308-21 51.308t-51.308 21H212.309Z"/></svg>

<svg xmlns="http://www.w3.org/2000/svg" height="24" viewBox="0 -960 960 960" width="24"><path d="M200-200.61q54-53 125.5-83.5t154.5-30.5q83 0 154.5 30.5t125.5 83.5v-507.08q0-4.62-3.85-8.46-3.84-3.85-8.46-3.85H212.31q-4.62 0-8.46 3.85-3.85 3.84-3.85 8.46v507.08ZM480-410q-54.15 0-92.08-37.92Q350-485.85 350-540t37.92-92.08Q425.85-670 480-670t92.08 37.92Q610-594.15 610-540t-37.92 92.08Q534.15-410 480-410ZM212.31-100Q182-100 161-121q-21-21-21-51.31v-535.38Q140-738 161-759q21-21 51.31-21h55.38v-53.85q0-13.15 8.81-21.96 8.81-8.8 21.96-8.8 13.16 0 21.96 8.8 8.81 8.81 8.81 21.96V-780h303.08v-54.61q0-12.77 8.61-21.39 8.62-8.61 21.39-8.61 12.77 0 21.38 8.61 8.62 8.62 8.62 21.39V-780h55.38Q778-780 799-759q21 21 21 51.31v535.38Q820-142 799-121q-21 21-51.31 21H212.31Z"/></svg>
